packages/core/src/svgs/tokens/branded/DERI.svg

<svg width="24" height="24" viewBox="0 0 24 24" fill="none" xmlns="http://www.w3.org/2000/svg">
<path d="M6.40217 2.0818C6.49108 2.02927 6.59226 2.00106 6.69553 2.00003C6.7988 1.999 6.90052 2.02516 6.99048 2.07591L20.5216 9.571C20.6125 9.62207 20.6881 9.69633 20.7409 9.78638C20.7936 9.87629 20.8214 9.97856 20.8217 10.0829V13.395C20.821 13.4977 20.7936 13.5984 20.742 13.6871C20.6903 13.7759 20.6165 13.8497 20.5275 13.901L6.89635 21.9196C6.79687 21.9778 6.68252 22.0054 6.56747 21.9991C6.45244 21.9929 6.34177 21.953 6.2492 21.8844L3.41942 19.7959C3.34528 19.7417 3.28484 19.6708 3.24296 19.5892C3.20107 19.5075 3.1789 19.417 3.17822 19.3252V4.32326C3.17824 4.22117 3.20483 4.12082 3.25537 4.03212C3.30591 3.94341 3.37867 3.86938 3.4665 3.81731L6.40804 2.07591L6.40217 2.0818ZM6.11389 3.62317L4.34895 4.66448V18.3309L13.3854 13.3715L11.9323 12.4949L9.94972 13.6833L7.00813 15.4659C6.91911 15.5201 6.81728 15.5496 6.71308 15.5516C6.60887 15.5535 6.50603 15.5277 6.41506 15.4769C6.32409 15.426 6.24827 15.3518 6.19535 15.262C6.14243 15.1723 6.11432 15.07 6.11389 14.9658V3.62317ZM10.2321 12.142L10.7909 11.8066L10.2321 11.4713V12.142ZM10.2321 10.1005L14.8679 12.889C14.9577 12.9419 15.0317 13.0176 15.0826 13.1085C15.1334 13.1993 15.1592 13.3019 15.1574 13.406C15.1556 13.5102 15.1263 13.6119 15.0723 13.7008C15.0184 13.7899 14.9418 13.863 14.8503 13.9128L4.84902 19.3957L6.6316 20.7078L19.0509 13.4127L10.2321 8.47085V10.1005ZM19.645 12.3948V10.4299L7.29051 3.58788V13.9186L9.05539 12.8478V7.47073C9.05456 7.36762 9.08092 7.2661 9.13157 7.17633C9.18236 7.08657 9.2558 7.01171 9.34462 6.95929C9.4333 6.90685 9.53433 6.87867 9.63742 6.87757C9.74051 6.87646 9.8421 6.90249 9.93201 6.95302L19.645 12.3891V12.3948Z" fill="#3756CD"/>
</svg>

<svg xmlns="http://www.w3.org/2000/svg" width="24" height="24" fill="none" viewBox="0 0 24 24">
    <path fill="#3756CD" d="M6.402 2.082a.59.59 0 0 1 .588-.006L20.522 9.57a.59.59 0 0 1 .3.512v3.312a.59.59 0 0 1-.294.506L6.896 21.92a.59.59 0 0 1-.647-.036l-2.83-2.088a.59.59 0 0 1-.24-.47V4.322a.59.59 0 0 1 .288-.506l2.941-1.741zm-.288 1.541L4.349 4.664v13.667l9.036-4.96-1.453-.876-1.982 1.188-2.942 1.783a.589.589 0 0 1-.894-.5zm4.118 8.519.559-.335-.559-.336zm0-2.041 4.636 2.788a.588.588 0 0 1-.018 1.024l-10 5.483 1.783 1.312 12.419-7.295-8.819-4.942zm9.413 2.294V10.43L7.291 3.588v10.33l1.764-1.07V7.47a.59.59 0 0 1 .877-.518l9.713 5.436z"/>
</svg>
